!!!COM: Schubert, Franz
!!!CDT: 1797/01/31-1828/11/19
!!!SCT: D. 969
!!!OPR: 12 Valses nobles
!!!OPS: 77
!!!ONM: 6
**kern	**kern	**dynam
*part1	*part1	*part1
*staff2	*staff1	*
*clefF4	*clefG2	*
*k[]	*k[]	*
*C:	*C:	*
*M3/4	*M3/4	*
*MM160	*MM160	*
=	=	=
4r	4g	p
=	=	=
4C`	4e^ 4g	.
4E` 4c	(8ccL	.
.	8eeJ	.
4G` 4c	8e) 8g	.
.	8r	.
=	=	=
4C`	4f^ 4a	.
4F` 4c	(8ccL	.
.	8ffJ	.
4A` 4c	8f) 8a	.
.	8r	.
=	=	=
*	*^	*
4C	4g	2.e	.
4E 4c	(8ccL	.	.
.	8ee	.	.
4G 4c	8dd	.	.
.	8ccJ)	.	.
=	=	=	=
4GG	(8ccL	4f	.
.	8b)	.	.
4D 4B	(8b	4f	.
.	8a)	.	.
4G 4B	(8a	4f	.
.	8gJ)	.	.
*	*v	*v	*
=	=	=
4C	4e^ 4g	.
4E 4c	(8ccL	.
.	8eeJ	.
4G 4c	8e) 8g	.
.	8r	.
=	=	=
4C	4f^ 4a	.
4F 4c	(8ccL	.
.	8ffJ	.
4A 4c	8f) 8a	.
.	8r	.
=	=	=
*	*^	*
4C	4g	2e	.
4E 4c	8ccL	.	.
.	8ee	.	.
4G 4d	8dd	4f 4g	.
.	8bJ	.	.
*	*v	*v	*
=	=	=
2C 2G 2c	2e 2g 2cc	.
=:||:	=:||:	=:||:
*>X	*>X	*>X
*d:	*d:	*
4r	4e 4g	.
=	=	=
4AA	4g 4a	.
4E 4c#X	(8eeL	.
.	8cc#XJ	.
4A 4c#	8g) 8a	.
.	8r	.
=	=	=
*	*^	*
4D	(8aL	4f	.
.	8ff)	.	.
4F 4d	(8ff	4a	.
.	8ee)	.	.
4A 4d	(8ee	4f 4a	.
.	8ddJ)	.	.
*	*v	*v	*
=	=	=
*C:	*C:	*
4GG	4f 4g	.
4D 4B	(8ddL	.
.	8bJ	.
4G 4B	8f) 8g	.
.	8r	.
=	=	=
*	*^	*
4C	(8gL	4e	.
.	8ee)	.	.
4E 4c	(8ee	4g	.
.	8dd)	.	.
4G 4c	(8dd	4e 4g	.
.	8ccJ)	.	.
*	*v	*v	*
=	=	=
4AA	4e 4f#X	.
4E 4c	(8ccL	<
.	8eeJ	.
4A 4c	8e) 8f#	.
.	8r	[
=	=	=
4GG	4e 4g	>
4E 4c	(8ccL	.
.	8eeJ	.
4G 4c	8e) 8g	.
.	8r	]
=	=	=
*	*^	*
4GG	(8gL	4f	.
.	8gg)	.	.
4D 4B	(8gg	4f 4g	.
.	8ff)	.	.
4G 4B	(8ff	4f 4g	.
.	8ddJ)	.	.
*	*v	*v	*
=	=	=
2C 2G 2c	2e 2g 2cc	.
4r	4r	.
=:|!	=:|!	=:|!
*-	*-	*-
!!!system-decoration: {(s1,s2)}
!!!AGN: Walzer
!!!EED: Wolfgang Drescher
!!!END: 2025/05/06
!!!ENC: Merle Koch
!!!EEV: 2025/05/07
!!!title: @{OPR}, @{SCT} №@{ONM}